X:1
T: Lannigan's Ball
C:
R:Jig
Q:180
K:Dm
M:6/8
L:1/16
D2E2D2 F4G2|A4G2 A2=B2c2|C4D2 E4F2|G4A2 G2E2C2|D2E2D2 F4G2|A4G2 A2=B2c2|d4A2 B4G2|A2F2D2 D6|
D2E2D2 F4G2|A4G2 A2=B2c2|C4D2 E4F2|G4A2 G2E2C2|D2E2D2 F4G2|A4G2 A2=B2c2|d4A2 B4G2|A2F2D2 D6|
d4e2 f4d2|e2g2f2 e2d2^c2|d4e2 f4d2|e2^c2A2 A4d2|d4e2 f4d2|e2g2f2 e2d2^c2|d4A2 B4G2|A2F2D2 D6|
d4e2 f4d2|e2g2f2 e2d2^c2|d4e2 f4d2|e2^c2A2 A4d2|d4e2 f4d2|e2g2f2 e2d2c2|d4A2 B4G2|A2F2D2 D6||
